src/icons_unused/hds/ui/pen-line.svg

<svg viewBox="0 0 24 24" role="img" xmlns="http://www.w3.org/2000/svg"><g fill="none" fill-rule="evenodd"><path d="M0 0h24v24H0z"/><path d="M20.5 20v2h-17v-2h17zM14.25 2.5L19 7.25 8.25 18l-4.736-.014L3.5 13.25 14.25 2.5zm0 2.75L5.5 14l.007 1.994L7.5 16l8.75-8.75-2-2z" fill="currentColor"/></g></svg>

<svg xmlns="http://www.w3.org/2000/svg" width="24" height="24" viewBox="0 0 24 24">
  <g fill="none" fill-rule="evenodd">
    <rect width="24" height="24"/>
    <path fill="currentColor" d="M20.5,20 L20.5,22 L3.5,22 L3.5,20 L20.5,20 Z M14.25,2.5 L19,7.25 L8.25,18 L3.51429927,17.9857007 L3.5,13.25 L14.25,2.5 Z M14.25,5.25 L5.5,14 L5.50695971,15.9940403 L7.5,16 L16.25,7.25 L14.25,5.25 Z"/>
  </g>
</svg>
